img/offer/icon3.svg

<svg width="57" height="74" viewBox="0 0 57 74" fill="none" xmlns="http://www.w3.org/2000/svg">
<path fill-rule="evenodd" clip-rule="evenodd" d="M37.8708 0.160867L37.3703 0.296389L34.5208 5.23192L31.6713 10.1673L30.9725 9.76383C30.5881 9.54191 30.1586 9.34239 30.0183 9.32035C29.4858 9.23706 28.9937 9.74103 28.1049 11.2806L27.248 12.7647L26.2534 12.256C25.4385 11.8391 25.1757 11.7697 24.7983 11.872L24.3377 11.9968L13.2738 31.1601C4.196 46.8833 2.14094 50.5164 1.82591 51.3989C1.06232 53.5377 0.714745 55.932 0.829706 58.2613C0.914736 59.9847 1.89852 63.483 2.73375 65.0324C6.40396 71.8405 13.9386 75.2296 21.3553 73.408C24.7378 72.5773 27.5211 70.9218 29.9962 68.2684C30.9269 67.2707 31.0925 66.9935 41.9702 48.2532C54.0261 27.4829 53.4799 28.5069 52.8877 27.7776C52.7433 27.5996 52.2806 27.2551 51.8596 27.012L51.0941 26.5701L51.861 25.2399C52.7278 23.7367 52.9978 22.9108 52.7521 22.5133C52.6596 22.3636 52.261 22.0548 51.8662 21.8268L51.1482 21.4123L53.9159 16.6186C55.7847 13.3817 56.6962 11.6953 56.7229 11.426C56.7444 11.2067 56.6581 10.8808 56.531 10.7017C56.3686 10.4732 53.6306 8.83519 47.3354 5.20067L38.3712 0.0251412L37.8708 0.160867ZM51.5186 16.0047L49.0844 20.2208L41.4098 15.7898L33.7351 11.3588L36.1692 7.14276L38.6034 2.92669L46.2781 7.35767L53.9527 11.7886L51.5186 16.0047ZM41.5905 8.01637C41.1261 8.14211 41.0363 8.24503 40.3438 9.44447C39.4714 10.9555 39.43 11.1159 39.7744 11.6558C40.0999 12.1665 40.6404 12.3298 41.2244 12.0942C41.5917 11.946 41.7844 11.7153 42.3297 10.7708C43.0648 9.49766 43.1795 8.98531 42.8377 8.50378C42.4818 8.00274 42.1372 7.8681 41.5905 8.01637ZM46.6209 10.9207C46.1564 11.0465 46.0668 11.1492 45.3723 12.3522C44.6956 13.5241 44.6335 13.6985 44.7223 14.1757C44.857 14.8995 45.4877 15.2636 46.1819 15.0184C46.6395 14.8567 46.7594 14.7156 47.436 13.5437C48.1306 12.3408 48.1747 12.2118 48.0514 11.7466C47.9678 11.4306 47.7713 11.1602 47.52 11.0152C47.2688 10.8701 46.9364 10.8351 46.6209 10.9207ZM49.5546 24.4705L49.0303 25.3785L39.1629 19.6816L29.2954 13.9846L29.8197 13.0765L30.344 12.1684L40.2114 17.8654L50.0789 23.5624L49.5546 24.4705ZM40.3102 46.3755C30.0269 64.274 29.0123 65.9446 27.5954 67.3147C22.6563 72.0908 15.1817 72.8671 9.65317 69.1781C3.77887 65.2582 1.63358 58.0033 4.40658 51.4363C4.93642 50.1817 25.3262 14.7685 25.5544 14.7067C25.6297 14.6862 31.2305 17.8875 38.0006 21.8204L50.3097 28.9712L40.3102 46.3755ZM28.5138 21.737C27.8464 21.9178 27.5016 22.5118 27.678 23.1771L27.8106 23.6783L34.5941 27.5948L41.3777 31.5113L41.8781 31.3755C42.4856 31.211 42.8455 30.6546 42.7484 30.0301L42.6788 29.5815L35.8491 25.5906L29.0194 21.5999L28.5138 21.737ZM25.2424 27.9751C24.4298 27.8877 23.8085 28.6418 24.0437 29.4299L24.1795 29.8843L31.0303 33.8396L37.8811 37.795L38.3458 37.6075C38.9802 37.3516 39.2469 36.8334 39.0624 36.2152L38.9111 35.7086L32.3278 31.8688C27.0006 28.7617 25.6485 28.0188 25.2424 27.9751ZM18.7811 52.0401C17.8245 51.7528 16.2598 51.7894 15.2364 52.123C10.9431 53.5217 9.55095 58.6735 12.5429 62.0899C14.0349 63.7937 16.6683 64.5092 18.8303 63.7981C23.2691 62.3383 24.6092 56.8392 21.3271 53.5528C20.7136 52.9386 19.6312 52.2955 18.7811 52.0401ZM20.0518 55.7617C20.9424 57.0562 21.0127 58.4416 20.2549 59.7685C19.6803 60.7748 18.9469 61.3137 17.8232 61.555C16.7935 61.7762 15.9834 61.6525 15.1197 61.1421C12.465 59.5736 12.8652 55.5317 15.7837 54.4343C16.2408 54.2625 17.3193 54.1744 17.8184 54.2682C18.6415 54.4226 19.5469 55.0282 20.0518 55.7617Z" fill="url(#paint0_linear_1924_5710)"/>
<defs>
<linearGradient id="paint0_linear_1924_5710" x1="33.03" y1="-3.05859" x2="70.2251" y2="47.4933" gradientUnits="userSpaceOnUse">
<stop stop-color="#0ABD92"/>
<stop offset="1" stop-color="#009DB8"/>
</linearGradient>
</defs>
</svg>

<svg width="57" height="74" fill="none" xmlns="http://www.w3.org/2000/svg"><path fill-rule="evenodd" clip-rule="evenodd" d="M37.87.16l-.5.136-2.85 4.936-2.849 4.935-.698-.403c-.385-.222-.814-.422-.955-.444-.532-.083-1.024.421-1.913 1.96l-.857 1.485-.995-.509c-.814-.417-1.077-.486-1.455-.384l-.46.125L13.274 31.16C4.196 46.883 2.14 50.516 1.826 51.4 1.062 53.538.715 55.932.83 58.26c.085 1.724 1.069 5.222 1.904 6.771 3.67 6.809 11.205 10.198 18.621 8.376 3.383-.83 6.166-2.486 8.641-5.14.93-.997 1.097-1.275 11.974-20.015 12.056-20.77 11.51-19.746 10.918-20.475-.145-.178-.607-.523-1.028-.766l-.766-.442.767-1.33c.867-1.503 1.137-2.33.891-2.727-.092-.15-.491-.458-.886-.686l-.718-.415 2.768-4.793c1.869-3.237 2.78-4.924 2.807-5.193a1.245 1.245 0 00-.192-.724c-.162-.229-2.9-1.867-9.196-5.501L38.371.025l-.5.136zm13.65 15.846l-2.435 4.216-7.674-4.431-7.675-4.431 2.434-4.216 2.434-4.216 7.675 4.43 7.675 4.432-2.434 4.216zm-9.93-7.99c-.465.126-.555.229-1.247 1.428-.873 1.511-.914 1.672-.57 2.212.326.51.866.674 1.45.438.368-.148.56-.379 1.106-1.323.735-1.273.85-1.786.508-2.267-.356-.501-.7-.636-1.248-.488zm5.03 2.905c-.465.126-.554.228-1.249 1.431-.676 1.172-.739 1.346-.65 1.824.135.723.766 1.088 1.46.842.457-.161.577-.302 1.254-1.474.695-1.203.739-1.332.615-1.797a1.197 1.197 0 00-.531-.732 1.197 1.197 0 00-.9-.094zm2.934 13.55l-.525.907-9.867-5.696-9.868-5.697.525-.909.524-.908 9.867 5.697 9.868 5.697-.524.909zM40.31 46.376C30.027 64.273 29.012 65.945 27.595 67.315c-4.939 4.776-12.413 5.552-17.942 1.863-5.874-3.92-8.02-11.175-5.246-17.742.53-1.254 20.92-36.667 21.147-36.73.076-.02 5.677 3.181 12.447 7.114l12.309 7.151-10 17.405zM28.514 21.737c-.668.18-1.012.775-.836 1.44l.133.501 6.783 3.917 6.784 3.916.5-.136c.608-.164.968-.72.87-1.345l-.07-.449-6.829-3.99-6.83-3.991-.505.137zm-3.272 6.238a1.123 1.123 0 00-1.198 1.455l.136.454 6.85 3.956 6.851 3.955.465-.188c.634-.255.9-.774.716-1.392l-.15-.506-6.584-3.84c-5.327-3.107-6.68-3.85-7.086-3.894zm-6.46 24.065c-.957-.287-2.522-.25-3.546.083-4.293 1.399-5.685 6.55-2.693 9.967 1.492 1.704 4.125 2.42 6.287 1.708 4.44-1.46 5.78-6.959 2.497-10.245-.613-.614-1.696-1.258-2.546-1.513zm1.27 3.722c.89 1.294.96 2.68.203 4.007-.575 1.006-1.308 1.545-2.432 1.786-1.03.221-1.84.098-2.703-.413-2.655-1.568-2.255-5.61.664-6.708.457-.171 1.535-.26 2.034-.166.823.155 1.729.76 2.234 1.494z" fill="url(#paint0_linear_1924_5710)"/><defs><linearGradient id="paint0_linear_1924_5710" x1="33.03" y1="-3.059" x2="70.225" y2="47.493" gradientUnits="userSpaceOnUse"><stop stop-color="#0ABD92"/><stop offset="1" stop-color="#009DB8"/></linearGradient></defs></svg>
